data/styles/clear/style-night/symbols/caravan_site-m.svg

<svg height="24" viewBox="0 0 24 24" width="24"><g fill="none" fill-rule="evenodd"><circle cx="12" cy="12" fill="#fff" opacity=".4" r="12"/><circle cx="12" cy="12" fill="#332721" r="11"/><path d="m11 16.5c0 .828-.672 1.5-1.5 1.5s-1.5-.672-1.5-1.5.672-1.5 1.5-1.5 1.5.672 1.5 1.5zm9-3.9v3.4h-7.051c-.245-1.691-1.69-3-3.449-3s-3.204 1.309-3.449 3h-1.051v-8.399c0-.884.717-1.601 1.601-1.601h9.6c.884 0 1.773.695 1.988 1.553zm-9-3.6c0-.553-.447-1-1-1h-2c-.553 0-1 .447-1 1v1c0 .553.447 1 1 1h2c.553 0 1-.447 1-1zm6 .5c0-.827-.673-1.5-1.5-1.5h-1c-.827 0-1.5.673-1.5 1.5v4.5h4z" fill="#fff" opacity=".6"/></g></svg>

<svg width="24" height="24" viewBox="0 0 24 24">
  <g fill="none" fill-rule="evenodd">
    <circle cx="12" cy="12" r="12" fill="#FFF" opacity=".4"/>
    <circle cx="12" cy="12" r="11" fill="#332721"/>
    <path fill="#FFF" d="M11,16.5 C11,17.328 10.328,18 9.5,18 C8.672,18 8,17.328 8,16.5 C8,15.672 8.672,15 9.5,15 C10.328,15 11,15.672 11,16.5 L11,16.5 Z M20,12.6 L20,16 L12.949,16 C12.704,14.309 11.259,13 9.5,13 C7.741,13 6.296,14.309 6.051,16 L5,16 L5,7.601 C5,6.717 5.717,6 6.601,6 L16.201,6 C17.085,6 17.974,6.695 18.189,7.553 L20,12.6 L20,12.6 Z M11,9 C11,8.447 10.553,8 10,8 L8,8 C7.447,8 7,8.447 7,9 L7,10 C7,10.553 7.447,11 8,11 L10,11 C10.553,11 11,10.553 11,10 L11,9 L11,9 Z M17,9.5 C17,8.673 16.327,8 15.5,8 L14.5,8 C13.673,8 13,8.673 13,9.5 L13,14 L17,14 L17,9.5 L17,9.5 Z" opacity=".6"/>
  </g>
</svg>
